X: 510
%
U:~=!turn!
U:w=!wedge!
T: Neil Gow's Compliments to Mr. Marshall
C:
O:Scotland
B:Keith Norman MacDonald : "The Skye collection of the best reels & strathspeys extant" : 1887
Z:Ralph Palmer
R:Strathspey
M:C
L:1/8
K:A
"Slowly."A,AcA eAcA | A,A (d/c/)(B/A/) GB TB2 {AB} | A,AcA eAcA | Tf/e/f/g/ ac EA A2 :|
f>a e>a d>a c>a | (B/A/B/c/) (d/c/B/A/) GB TB2 | f>a ea d>a c>a | (TB/A/B/c/) (d/c/B/A/) EA Ag |
f>a ea f>a ca | (B/A/B/c/) (d/c/B/A/) GB TB2 {AB} | CEA,A FA Hdf | {/f}(ed/c/) (d/c/)wB/wA/ EA A2 |]


